X:3402
T:La Guinguette (N. Pignol)
O:england
M:3/4
L:1/8
K:C
A+c-e-+ +ce+A +df++ce+|z+B-d-+ +Bd+G +ce++Bd+|\
z+A-c-+ +Ac+F +Ac+F|zE (3GBc de|\
A+c-e-+ +ce+A +df++ce+|z+B-d-+ +Bd+G +ce++Bd+|\
z+A-c-+ +Ac+F +Ac+F|+E6A6c6+:|
+c2-e2-+ +ce+f ec|+B2-d2-+ +Bd+c BG|\
z2 (3ABc de|ze de- e2|\
+c2-e2-+ +ce+f ec|+B2-d2-+ +Bd+c BG|\
zc BA Bc|A2 +E4A4+:|
A+A-e-+ +Ae+A +Ad+A|+B2-d2-+ +Bd+c BG|\
z2 (3ABc de|ze de- e2|\
A+A-e-+ +Ae+A +Ad+A|+B2-d2-+ +Bd+c BG|\
zc BA Bc|A2 +E4A4+:|\
(3eGc (3gGc (3eGc|(3dGB (3gGB (3dGB|\
(3ABc (3ded (3cBA|(3edc (3Bcd (3edB|\
(3eGc (3gGc (3eGc|(3dGB (3gGB (3dGB|\
zc BA Bc|A2 +E4A4+:|\
c2- cd cB-|B2-Bc (3dcB|\
zA (3Bcd ef|d2-dg (3fed|\
c2- cd cB-|B2-Bc (3dcB|\
zc BA Bc|A2 +E4A4+:|
(3eEe (3eEe (3eEe|(3dEd (3dEd (3dEd|\
(3cEc (3cEc (3cEc|


